dist/svg/formatting/link_24.svg

<svg xmlns="http://www.w3.org/2000/svg" viewBox="0 0 24 24"><path d="M21.432 2.568C20.464 1.6 19.125 1 17.646 1c-1.478 0-2.816.6-3.784 1.568l-2.294 2.294C10.6 5.832 10 7.17 10 8.647c0 .567.106 1.11.263 1.63C9.75 10.11 9.213 10 8.646 10c-1.478 0-2.816.6-3.784 1.568l-2.294 2.294C1.6 14.832 1 16.17 1 17.647c0 1.478.56 2.855 1.53 3.824.968.97 2.345 1.53 3.823 1.53 1.478 0 2.816-.6 3.784-1.568l2.294-2.294c.97-.97 1.57-2.306 1.57-3.784 0-.567-.112-1.103-.275-1.616.52.156 1.062.262 1.63.262 1.477 0 2.815-.6 3.783-1.568l2.294-2.294C22.4 9.168 23 7.832 23 6.354c0-1.48-.6-2.818-1.568-3.786zM11.018 17.724L8.724 20.02c-.634.63-1.476.98-2.37.98-.932 0-1.81-.344-2.41-.943-.6-.6-.944-1.48-.944-2.41 0-.895.35-1.737.982-2.37l2.295-2.294C6.91 12.35 7.75 12 8.647 12c.55 0 1.072.146 1.545.394l-2.9 2.9 1.415 1.413 2.9-2.9c.247.474.393.996.393 1.547 0 .895-.35 1.736-.982 2.37zm9-9l-2.295 2.294c-.633.633-1.475.982-2.37.982-.56 0-1.095-.14-1.57-.37l2.924-2.923-1.414-1.414-2.923 2.923c-.23-.473-.37-1.007-.37-1.57 0-.894.35-1.736.982-2.37l2.294-2.293C15.91 3.35 16.75 3 17.646 3c.896 0 1.738.35 2.372.982.633.633.982 1.476.982 2.372 0 .895-.35 1.736-.982 2.37z" fill="#323232"/></svg>

<?xml version="1.0" encoding="utf-8"?>
<!-- Generator: Adobe Illustrator 19.1.0, SVG Export Plug-In . SVG Version: 6.00 Build 0)  -->
<svg version="1.1" id="Icon" xmlns="http://www.w3.org/2000/svg" xmlns:xlink="http://www.w3.org/1999/xlink" x="0px" y="0px"
	 width="24px" height="24px" viewBox="0 0 24 24" enable-background="new 0 0 24 24" xml:space="preserve">
<path d="M21.432,2.568C20.464,1.6,19.125,1,17.646,1c-1.478,0-2.816,0.6-3.784,1.568l-2.294,2.294C10.6,5.831,10,7.169,10,8.647
	c0,0.567,0.106,1.109,0.263,1.629C9.749,10.112,9.213,10,8.646,10c-1.478,0-2.816,0.6-3.784,1.568l-2.294,2.294
	C1.6,14.831,1,16.169,1,17.647c0,1.478,0.561,2.855,1.529,3.824C3.498,22.439,4.875,23,6.353,23c1.478,0,2.816-0.6,3.784-1.568
	l2.294-2.294C13.4,18.169,14,16.832,14,15.354c0-0.567-0.112-1.103-0.275-1.616C14.245,13.894,14.787,14,15.354,14
	c1.478,0,2.816-0.6,3.784-1.568l2.294-2.294C22.4,9.169,23,7.832,23,6.354C23,4.875,22.4,3.536,21.432,2.568z M11.018,17.724
	l-2.294,2.295C8.09,20.651,7.248,21,6.353,21c-0.931,0-1.81-0.344-2.409-0.943C3.344,19.457,3,18.578,3,17.647
	c0-0.895,0.349-1.737,0.982-2.37l2.295-2.294C6.91,12.349,7.751,12,8.646,12c0.55,0,1.073,0.146,1.546,0.394l-2.899,2.899
	l1.414,1.414l2.899-2.899C11.854,14.281,12,14.803,12,15.354C12,16.249,11.651,17.09,11.018,17.724z M20.018,8.724l-2.295,2.294
	C17.09,11.651,16.248,12,15.354,12c-0.562,0-1.096-0.139-1.57-0.37l2.923-2.923l-1.414-1.414l-2.923,2.923
	C12.139,9.743,12,9.209,12,8.647c0-0.895,0.349-1.737,0.982-2.37l2.294-2.294C15.91,3.349,16.751,3,17.646,3
	c0.896,0,1.738,0.349,2.372,0.982C20.651,4.615,21,5.458,21,6.354C21,7.249,20.651,8.09,20.018,8.724z"/>
</svg>
